assets/img/dots.svg

<svg fill="none" height="184" viewBox="0 0 184 184" width="184" xmlns="http://www.w3.org/2000/svg"><path clip-rule="evenodd" d="m91.7496.00033379c.0834-.00022245.1669-.00033379.2504-.00033379s.167.00011134.2504.00033379c1.1046.00294435 1.9976.90075821 1.9947 2.00532621-.003 1.10456-.9008 1.9976-2.0053 1.99466-.0799-.00021-.1599-.00032-.2398-.00032s-.1599.00011-.2398.00032c-1.1045.00294-2.0023-.8901-2.0053-1.99466-.0029-1.104567.8901-2.00238174 1.9947-2.00532621zm12.1154 2.75242621c.169-1.09164 1.19-1.839984 2.282-1.67147.165.02544.33.05132.494.07763 1.091.17446 1.834 1.20007 1.659 2.29078-.174 1.0907-1.2 1.83347-2.291 1.65902-.157-.02517-.314-.04992-.472-.07426-1.092-.16851-1.84-1.19006-1.672-2.2817zm-23.7304 0c.1685 1.09164-.5799 2.1132-1.6715 2.28171-.1577.02433-.3152.04908-.4725.07425-1.0907.17446-2.1163-.56831-2.2908-1.65902-.1744-1.09071.5683-2.11632 1.659-2.29077.1646-.02632.3292-.0522.494-.07764 1.0917-.168511 2.1132.57983 2.2818 1.67147zm37.5504 2.94219c.338-1.0515 1.465-1.62968 2.516-1.29141.159.05096.317.10235.475.15415 1.05.34401 1.622 1.47379 1.278 2.52342s-1.474 1.62165-2.524 1.27764c-.151-.04954-.302-.09867-.454-.1474-1.051-.33827-1.629-1.4649-1.291-2.5164zm-51.3701 0c.3383 1.0515-.2399 2.17813-1.2914 2.5164-.1515.04874-.3028.09787-.4539.1474-1.0496.34401-2.1794-.228-2.5234-1.27763-.344-1.04964.228-2.17941 1.2776-2.52342.1581-.05181.3163-.10319.4747-.15416 1.0515-.33827 2.1782.23992 2.5164 1.29141zm64.5521 5.08235c.5-.98513 1.703-1.37874 2.688-.87916.149.07517.297.15076.444.22666.983.5049 1.37 1.7107.865 2.6931s-1.711 1.3694-2.693.8645c-.142-.0726-.283-.1449-.425-.2168-.985-.4996-1.379-1.7032-.879-2.6883zm-77.734 0c.4996.9851.106 2.1887-.8792 2.6883-.1417.0719-.2832.1442-.4245.2168-.9824.5049-2.1882.1179-2.6931-.8645s-.1179-2.1882.8645-2.6931c.1478-.0759.2958-.15149.444-.22665.9851-.49959 2.1887-.10597 2.6883.87915zm89.953 7.0898c.648-.8948 1.898-1.0953 2.793-.4477.134.0974.269.1951.403.2931.891.6524 1.085 1.9039.432 2.7952-.652.8913-1.903 1.085-2.795.4326-.128-.0938-.256-.1873-.385-.2804-.895-.6476-1.095-1.8979-.448-2.7928zm-102.1722 0c.6476.8949.4471 2.1452-.4477 2.7928-.1287.0931-.2572.1866-.3854.2804-.8913.6524-2.1427.4587-2.7951-.4326s-.4587-2.1428.4327-2.7952c.134-.098.2682-.1957.4028-.2931.8948-.6476 2.1452-.4471 2.7927.4477zm113.1352 8.9108c.779-.7832 2.045-.7866 2.828-.0077.118.1172.236.2346.353.3524.779.7831.775 2.0495-.008 2.8284s-2.049.7755-2.828-.0076c-.112-.1127-.225-.2251-.337-.3371-.784-.779-.787-2.0453-.008-2.8284zm-124.098 0c.7789.7831.7755 2.0494-.0076 2.8284-.1127.112-.2251.2244-.3371.3371-.779.7831-2.0453.7865-2.8284.0076-.7832-.7789-.7866-2.0453-.0077-2.8284.1172-.1178.2346-.2352.3524-.3524.7831-.7789 2.0495-.7755 2.8284.0077zm133.541 10.5077c.892-.6524 2.143-.4587 2.795.4327.099.134.196.2682.294.4028.647.8948.447 2.1452-.448 2.7927-.895.6476-2.145.4471-2.793-.4477-.093-.1287-.187-.2572-.28-.3854-.653-.8913-.459-2.1427.432-2.7951zm-142.9843 0c.8913.6524 1.085 1.9038.4326 2.7951-.0938.1282-.1873.2567-.2804.3854-.6476.8948-1.8979 1.0953-2.7928.4477-.8948-.6475-1.0953-1.8979-.4477-2.7927.0974-.1346.1951-.2688.2931-.4028.6524-.8914 1.9039-1.0851 2.7952-.4327zm150.6743 11.8506c.983-.5049 2.188-.1179 2.693.8645.076.1478.152.2958.227.444.499.9851.106 2.1887-.879 2.6883s-2.189.106-2.689-.8792c-.072-.1417-.144-.2832-.216-.4245-.505-.9824-.118-2.1882.864-2.6931zm-158.3641 0c.9824.5049 1.3694 1.7107.8645 2.6931-.0726.1413-.1449.2828-.2168.4245-.4996.9852-1.7032 1.3788-2.6883.8792-.98513-.4996-1.37874-1.7032-.87916-2.6883.07517-.1482.15076-.2962.22666-.444.5049-.9824 1.7107-1.3694 2.6931-.8645zm164.1011 12.91c1.05-.344 2.179.228 2.523 1.2776.052.1581.103.3163.154.4747.339 1.0515-.239 2.1782-1.291 2.5164-1.051.3383-2.178-.2399-2.516-1.2914-.049-.1515-.098-.3028-.148-.4539-.344-1.0496.228-2.1794 1.278-2.5234zm-169.83789 0c1.04963.344 1.62165 1.4738 1.27764 2.5234-.04954.1511-.09867.3025-.1474.4539-.33827 1.0515-1.4649 1.6297-2.5164 1.2915-1.0515-.3383-1.62968-1.4649-1.29141-2.5164.05096-.1585.10235-.3167.15415-.4748.34401-1.0496 1.47379-1.6216 2.52342-1.2776zm173.46889 13.6536c1.091-.1744 2.117.5683 2.291 1.659.026.1646.052.3292.078.494.168 1.0917-.58 2.1132-1.672 2.2818-1.091.1685-2.113-.5799-2.281-1.6715-.025-.1577-.05-.3152-.075-.4725-.174-1.0907.569-2.1163 1.659-2.2908zm-177.1003 0c1.0907.1745 1.83347 1.2001 1.65902 2.2908-.02517.1574-.04992.3149-.07426.4725-.16851 1.0916-1.19006 1.84-2.2817 1.6715s-1.839984-1.1901-1.67147-2.2817c.02544-.1649.05132-.3295.07763-.4941.17446-1.0907 1.20007-1.8334 2.29078-1.659zm178.5443 14.0551c1.105-.0029 2.003.8901 2.006 1.9947v.1188.1316.2504c-.003 1.1046-.901 1.9976-2.006 1.9947-1.104-.003-1.997-.9008-1.994-2.0053 0-.0799 0-.1599 0-.2398s0-.1599 0-.2398c-.003-1.1045.89-2.0023 1.994-2.0053zm-179.98834 0c1.10456.003 1.9976.9008 1.99466 2.0053-.00021.0799-.00032.1599-.00032.2398s.00011.1599.00032.2398c.00294 1.1045-.8901 2.0023-1.99466 2.0053-1.104567.0029-2.00238174-.8901-2.00532621-1.9947-.00022245-.0834-.00033379-.1669-.00033379-.2504s.00011134-.167.00033379-.2504c.00294435-1.1046.90075821-1.9976 2.00532621-1.9947zm179.24134 14.1101c1.092.169 1.84 1.19 1.672 2.282-.026.165-.052.33-.078.494-.174 1.091-1.2 1.834-2.291 1.659-1.09-.174-1.833-1.2-1.659-2.291.025-.157.05-.314.075-.472.168-1.092 1.19-1.84 2.281-1.672zm-178.49424 0c1.09164-.168 2.1132.58 2.28171 1.672.02433.158.04908.315.07425.472.17446 1.091-.56831 2.117-1.65902 2.291-1.09071.175-2.11632-.568-2.29077-1.659-.02632-.164-.0522-.329-.07764-.494-.168511-1.091.57983-2.113 1.67147-2.282zm175.55224 13.82c1.052.338 1.63 1.465 1.291 2.516-.05.159-.102.317-.154.475-.344 1.05-1.473 1.622-2.523 1.278s-1.622-1.474-1.278-2.524c.027-.082.054-.164.081-.246.022-.069.044-.138.067-.208.338-1.051 1.465-1.629 2.516-1.291zm-172.61005 0c1.0515-.338 2.17813.24 2.5164 1.291.04874.152.09787.303.1474.454.34401 1.05-.228 2.18-1.27763 2.524-1.04964.344-2.17941-.228-2.52342-1.278-.05181-.158-.10319-.316-.15416-.475-.33827-1.051.23992-2.178 1.29141-2.516zm167.52805 13.182c.985.5 1.378 1.703.879 2.688-.075.149-.151.297-.227.444-.505.983-1.71 1.37-2.693.865-.982-.505-1.369-1.711-.864-2.693.053-.104.106-.208.159-.312.019-.038.038-.075.057-.113.5-.985 1.704-1.379 2.689-.879zm-162.4457 0c.9851-.5 2.1887-.106 2.6883.879.0719.142.1442.283.2168.425.5049.982.1179 2.188-.8645 2.693s-2.1882.118-2.6931-.865c-.0759-.147-.15149-.295-.22665-.444-.49959-.985-.10597-2.188.87915-2.688zm7.0898 12.219c.8949-.647 2.1452-.447 2.7928.448.0931.129.1866.257.2804.385.6524.892.4587 2.143-.4326 2.795-.8913.653-2.1428.459-2.7952-.432-.098-.134-.1957-.269-.2931-.403-.6476-.895-.4471-2.145.4477-2.793zm148.2659 0c.895.648 1.095 1.898.448 2.793-.098.134-.195.269-.294.403-.652.891-1.903 1.085-2.795.432-.891-.652-1.085-1.903-.432-2.795.093-.128.187-.256.28-.385.648-.895 1.898-1.095 2.793-.448zm-8.911 10.963c.783.779.787 2.045.008 2.828-.117.118-.235.236-.353.353-.783.779-2.049.775-2.828-.008s-.776-2.049.008-2.828l.337-.337c.779-.784 2.045-.787 2.828-.008zm-130.4441 0c.7831-.779 2.0494-.776 2.8284.008.112.112.2244.225.3371.337.7831.779.7865 2.045.0076 2.828s-2.0453.787-2.8284.008c-.1178-.117-.2352-.235-.3524-.353-.7789-.783-.7755-2.049.0077-2.828zm10.5077 9.443c.6524-.891 1.9038-1.085 2.7951-.432.1282.093.2567.187.3854.28.8948.648 1.0953 1.898.4477 2.793-.6475.895-1.8979 1.095-2.7927.448-.1346-.098-.2688-.195-.4028-.294-.8914-.652-1.0851-1.903-.4327-2.795zm109.4284 0c.653.892.459 2.143-.432 2.795-.134.099-.269.196-.403.294-.895.647-2.145.447-2.793-.448-.647-.895-.447-2.145.448-2.793.129-.093.257-.187.385-.28.892-.653 2.143-.459 2.795.432zm-97.5778 7.69c.5049-.982 1.7107-1.369 2.6931-.864.1413.072.2828.144.4245.216.9852.5 1.3788 1.704.8792 2.689s-1.7032 1.378-2.6883.879c-.0829-.042-.1657-.084-.2484-.127-.0652-.033-.1304-.066-.1956-.1-.9824-.505-1.3694-1.71-.8645-2.693zm85.7278 0c.505.983.118 2.188-.865 2.693-.147.076-.295.152-.444.227-.985.499-2.188.106-2.688-.879s-.106-2.189.879-2.689c.142-.072.283-.144.425-.216.982-.505 2.188-.118 2.693.864zm-72.8178 5.737c.344-1.05 1.4738-1.622 2.5234-1.278.1511.05.3025.099.4539.148 1.0515.338 1.6297 1.465 1.2915 2.516-.3383 1.052-1.4649 1.63-2.5164 1.291-.1585-.05-.3167-.102-.4748-.154-1.0496-.344-1.6216-1.473-1.2776-2.523zm59.9078 0c.344 1.05-.228 2.179-1.278 2.523-.066.022-.133.044-.199.065-.092.03-.184.06-.276.089-1.051.339-2.178-.239-2.516-1.291-.338-1.051.24-2.178 1.291-2.516.152-.049.303-.098.454-.148 1.05-.344 2.18.228 2.524 1.278zm-13.654 3.631c.175 1.091-.568 2.117-1.659 2.291-.164.026-.329.052-.494.078-1.091.168-2.113-.58-2.282-1.672-.168-1.091.58-2.113 1.672-2.281.158-.025.315-.05.472-.075 1.091-.174 2.117.569 2.291 1.659zm-32.6002 0c.1745-1.09 1.2001-1.833 2.2908-1.659.1574.025.3149.05.4725.075 1.0916.168 1.84 1.19 1.6715 2.281-.1685 1.092-1.1901 1.84-2.2817 1.672-.0798-.013-.1595-.025-.2392-.038-.085-.013-.1699-.026-.2549-.04-1.0907-.174-1.8334-1.2-1.659-2.291zm14.0551 1.444c.003-1.104.9008-1.997 2.0053-1.994h.1366.1032.2398c1.1045-.003 2.0023.89 2.0053 1.994.0029 1.105-.8901 2.003-1.9947 2.006-.0834 0-.1669 0-.2504 0s-.167 0-.2504 0c-1.1046-.003-1.9976-.901-1.9947-2.006z" fill="#fff" fill-rule="evenodd"/></svg>

<svg width="184" height="184" viewBox="0 0 184 184" fill="none" xmlns="http://www.w3.org/2000/svg">
<path fill-rule="evenodd" clip-rule="evenodd" d="M91.7496 0.000333786C91.833 0.000111341 91.9165 0 92 0C92.0835 0 92.167 0.000111341 92.2504 0.000333786C93.355 0.00327814 94.248 0.901092 94.2451 2.00566C94.2421 3.11022 93.3443 4.00326 92.2398 4.00032C92.1599 4.00011 92.0799 4 92 4C91.9201 4 91.8401 4.00011 91.7602 4.00032C90.6557 4.00326 89.7579 3.11022 89.7549 2.00566C89.752 0.901093 90.645 0.00327826 91.7496 0.000333786ZM103.865 2.75276C104.034 1.66112 105.055 0.912776 106.147 1.08129C106.312 1.10673 106.477 1.13261 106.641 1.15892C107.732 1.33338 108.475 2.35899 108.3 3.4497C108.126 4.5404 107.1 5.28317 106.009 5.10872C105.852 5.08355 105.695 5.0588 105.537 5.03446C104.445 4.86595 103.697 3.8444 103.865 2.75276ZM80.1346 2.75276C80.3031 3.8444 79.5547 4.86596 78.4631 5.03447C78.3054 5.0588 78.1479 5.08355 77.9906 5.10872C76.8999 5.28318 75.8743 4.54041 75.6998 3.4497C75.5254 2.35899 76.2681 1.33338 77.3588 1.15893C77.5234 1.13261 77.688 1.10673 77.8528 1.08129C78.9445 0.912779 79.966 1.66112 80.1346 2.75276ZM117.685 5.69495C118.023 4.64345 119.15 4.06527 120.201 4.40354C120.36 4.4545 120.518 4.50589 120.676 4.55769C121.726 4.9017 122.298 6.03148 121.954 7.08111C121.61 8.13074 120.48 8.70276 119.43 8.35875C119.279 8.30921 119.128 8.26008 118.976 8.21135C117.925 7.87308 117.347 6.74645 117.685 5.69495ZM66.3149 5.69495C66.6532 6.74645 66.075 7.87308 65.0235 8.21135C64.872 8.26009 64.7207 8.30922 64.5696 8.35875C63.52 8.70276 62.3902 8.13075 62.0462 7.08112C61.7022 6.03148 62.2742 4.90171 63.3238 4.5577C63.4819 4.50589 63.6401 4.45451 63.7985 4.40354C64.85 4.06527 65.9767 4.64346 66.3149 5.69495ZM130.867 10.7773C131.367 9.79217 132.57 9.39856 133.555 9.89814C133.704 9.97331 133.852 10.0489 133.999 10.1248C134.982 10.6297 135.369 11.8355 134.864 12.8179C134.359 13.8003 133.153 14.1873 132.171 13.6824C132.029 13.6098 131.888 13.5375 131.746 13.4656C130.761 12.966 130.367 11.7624 130.867 10.7773ZM53.133 10.7773C53.6326 11.7624 53.239 12.966 52.2538 13.4656C52.1121 13.5375 51.9706 13.6098 51.8293 13.6824C50.8469 14.1873 49.6411 13.8003 49.1362 12.8179C48.6313 11.8355 49.0183 10.6297 50.0007 10.1248C50.1485 10.0489 50.2965 9.97331 50.4447 9.89815C51.4298 9.39856 52.6334 9.79218 53.133 10.7773ZM143.086 17.8671C143.734 16.9723 144.984 16.7718 145.879 17.4194C146.013 17.5168 146.148 17.6145 146.282 17.7125C147.173 18.3649 147.367 19.6164 146.714 20.5077C146.062 21.399 144.811 21.5927 143.919 20.9403C143.791 20.8465 143.663 20.753 143.534 20.6599C142.639 20.0123 142.439 18.762 143.086 17.8671ZM40.9138 17.8671C41.5614 18.762 41.3609 20.0123 40.4661 20.6599C40.3374 20.753 40.2089 20.8465 40.0807 20.9403C39.1894 21.5927 37.938 21.399 37.2856 20.5077C36.6332 19.6164 36.8269 18.3649 37.7183 17.7125C37.8523 17.6145 37.9865 17.5168 38.1211 17.4194C39.0159 16.7718 40.2663 16.9723 40.9138 17.8671ZM154.049 26.7779C154.828 25.9947 156.094 25.9913 156.877 26.7702C156.995 26.8874 157.113 27.0048 157.23 27.1226C158.009 27.9057 158.005 29.1721 157.222 29.951C156.439 30.7299 155.173 30.7265 154.394 29.9434C154.282 29.8307 154.169 29.7183 154.057 29.6063C153.273 28.8273 153.27 27.561 154.049 26.7779ZM29.951 26.7779C30.7299 27.561 30.7265 28.8273 29.9434 29.6063C29.8307 29.7183 29.7183 29.8307 29.6063 29.9434C28.8273 30.7265 27.561 30.7299 26.7779 29.951C25.9947 29.1721 25.9913 27.9057 26.7702 27.1226C26.8874 27.0048 27.0048 26.8874 27.1226 26.7702C27.9057 25.9913 29.1721 25.9947 29.951 26.7779ZM163.492 37.2856C164.384 36.6332 165.635 36.8269 166.287 37.7183C166.386 37.8523 166.483 37.9865 166.581 38.1211C167.228 39.0159 167.028 40.2663 166.133 40.9138C165.238 41.5614 163.988 41.3609 163.34 40.4661C163.247 40.3374 163.153 40.2089 163.06 40.0807C162.407 39.1894 162.601 37.938 163.492 37.2856ZM20.5077 37.2856C21.399 37.938 21.5927 39.1894 20.9403 40.0807C20.8465 40.2089 20.753 40.3374 20.6599 40.4661C20.0123 41.3609 18.762 41.5614 17.8671 40.9138C16.9723 40.2663 16.7718 39.0159 17.4194 38.1211C17.5168 37.9865 17.6145 37.8523 17.7125 37.7183C18.3649 36.8269 19.6164 36.6332 20.5077 37.2856ZM171.182 49.1362C172.165 48.6313 173.37 49.0183 173.875 50.0007C173.951 50.1485 174.027 50.2965 174.102 50.4447C174.601 51.4298 174.208 52.6334 173.223 53.133C172.238 53.6326 171.034 53.239 170.534 52.2538C170.462 52.1121 170.39 51.9706 170.318 51.8293C169.813 50.8469 170.2 49.6411 171.182 49.1362ZM12.8179 49.1362C13.8003 49.6411 14.1873 50.8469 13.6824 51.8293C13.6098 51.9706 13.5375 52.1121 13.4656 52.2538C12.966 53.239 11.7624 53.6326 10.7773 53.133C9.79217 52.6334 9.39856 51.4298 9.89814 50.4447C9.97331 50.2965 10.0489 50.1485 10.1248 50.0007C10.6297 49.0183 11.8355 48.6313 12.8179 49.1362ZM176.919 62.0462C177.969 61.7022 179.098 62.2742 179.442 63.3238C179.494 63.4819 179.545 63.6401 179.596 63.7985C179.935 64.85 179.357 65.9767 178.305 66.3149C177.254 66.6532 176.127 66.075 175.789 65.0235C175.74 64.872 175.691 64.7207 175.641 64.5696C175.297 63.52 175.869 62.3902 176.919 62.0462ZM7.08111 62.0462C8.13074 62.3902 8.70276 63.52 8.35875 64.5696C8.30921 64.7207 8.26008 64.8721 8.21135 65.0235C7.87308 66.075 6.74645 66.6532 5.69495 66.315C4.64345 65.9767 4.06527 64.8501 4.40354 63.7986C4.4545 63.6401 4.50589 63.4819 4.55769 63.3238C4.9017 62.2742 6.03148 61.7022 7.08111 62.0462ZM180.55 75.6998C181.641 75.5254 182.667 76.2681 182.841 77.3588C182.867 77.5234 182.893 77.688 182.919 77.8528C183.087 78.9445 182.339 79.966 181.247 80.1346C180.156 80.3031 179.134 79.5547 178.966 78.4631C178.941 78.3054 178.916 78.1479 178.891 77.9906C178.717 76.8999 179.46 75.8743 180.55 75.6998ZM3.4497 75.6998C4.5404 75.8743 5.28317 76.8999 5.10872 77.9906C5.08355 78.148 5.0588 78.3055 5.03446 78.4631C4.86595 79.5547 3.8444 80.3031 2.75276 80.1346C1.66112 79.9661 0.912776 78.9445 1.08129 77.8529C1.10673 77.688 1.13261 77.5234 1.15892 77.3588C1.33338 76.2681 2.35899 75.5254 3.4497 75.6998ZM181.994 89.7549C183.099 89.752 183.997 90.645 184 91.7496C184 91.7892 184 91.8288 184 91.8684C184 91.9123 184 91.9561 184 92C184 92.0835 184 92.167 184 92.2504C183.997 93.355 183.099 94.248 181.994 94.2451C180.89 94.2421 179.997 93.3443 180 92.2398C180 92.1599 180 92.0799 180 92C180 91.9201 180 91.8401 180 91.7602C179.997 90.6557 180.89 89.7579 181.994 89.7549ZM2.00566 89.7549C3.11022 89.7579 4.00326 90.6557 4.00032 91.7602C4.00011 91.8401 4 91.9201 4 92C4 92.0799 4.00011 92.1599 4.00032 92.2398C4.00326 93.3443 3.11022 94.2421 2.00566 94.2451C0.901093 94.248 0.00327826 93.355 0.000333786 92.2504C0.000111341 92.167 0 92.0835 0 92C0 91.9165 0.000111341 91.833 0.000333786 91.7496C0.00327814 90.645 0.901092 89.752 2.00566 89.7549ZM181.247 103.865C182.339 104.034 183.087 105.055 182.919 106.147C182.893 106.312 182.867 106.477 182.841 106.641C182.667 107.732 181.641 108.475 180.55 108.3C179.46 108.126 178.717 107.1 178.891 106.009C178.916 105.852 178.941 105.695 178.966 105.537C179.134 104.445 180.156 103.697 181.247 103.865ZM2.75276 103.865C3.8444 103.697 4.86596 104.445 5.03447 105.537C5.0588 105.695 5.08355 105.852 5.10872 106.009C5.28318 107.1 4.54041 108.126 3.4497 108.3C2.35899 108.475 1.33338 107.732 1.15893 106.641C1.13261 106.477 1.10673 106.312 1.08129 106.147C0.912779 105.056 1.66112 104.034 2.75276 103.865ZM178.305 117.685C179.357 118.023 179.935 119.15 179.596 120.201C179.546 120.36 179.494 120.518 179.442 120.676C179.098 121.726 177.969 122.298 176.919 121.954C175.869 121.61 175.297 120.48 175.641 119.43C175.668 119.348 175.695 119.266 175.722 119.184C175.744 119.115 175.766 119.046 175.789 118.976C176.127 117.925 177.254 117.347 178.305 117.685ZM5.69495 117.685C6.74645 117.347 7.87308 117.925 8.21135 118.976C8.26009 119.128 8.30922 119.279 8.35875 119.43C8.70276 120.48 8.13075 121.61 7.08112 121.954C6.03148 122.298 4.90171 121.726 4.5577 120.676C4.50589 120.518 4.45451 120.36 4.40354 120.201C4.06527 119.15 4.64346 118.023 5.69495 117.685ZM173.223 130.867C174.208 131.367 174.601 132.57 174.102 133.555C174.027 133.704 173.951 133.852 173.875 133.999C173.37 134.982 172.165 135.369 171.182 134.864C170.2 134.359 169.813 133.153 170.318 132.171C170.371 132.067 170.424 131.963 170.477 131.859C170.496 131.821 170.515 131.784 170.534 131.746C171.034 130.761 172.238 130.367 173.223 130.867ZM10.7773 130.867C11.7624 130.367 12.966 130.761 13.4656 131.746C13.5375 131.888 13.6098 132.029 13.6824 132.171C14.1873 133.153 13.8003 134.359 12.8179 134.864C11.8355 135.369 10.6297 134.982 10.1248 133.999C10.0489 133.852 9.97331 133.704 9.89815 133.555C9.39856 132.57 9.79218 131.367 10.7773 130.867ZM17.8671 143.086C18.762 142.439 20.0123 142.639 20.6599 143.534C20.753 143.663 20.8465 143.791 20.9403 143.919C21.5927 144.811 21.399 146.062 20.5077 146.714C19.6164 147.367 18.3649 147.173 17.7125 146.282C17.6145 146.148 17.5168 146.013 17.4194 145.879C16.7718 144.984 16.9723 143.734 17.8671 143.086ZM166.133 143.086C167.028 143.734 167.228 144.984 166.581 145.879C166.483 146.013 166.386 146.148 166.287 146.282C165.635 147.173 164.384 147.367 163.492 146.714C162.601 146.062 162.407 144.811 163.06 143.919C163.153 143.791 163.247 143.663 163.34 143.534C163.988 142.639 165.238 142.439 166.133 143.086ZM157.222 154.049C158.005 154.828 158.009 156.094 157.23 156.877C157.113 156.995 156.995 157.113 156.877 157.23C156.094 158.009 154.828 158.005 154.049 157.222C153.27 156.439 153.273 155.173 154.057 154.394C154.169 154.282 154.282 154.169 154.394 154.057C155.173 153.273 156.439 153.27 157.222 154.049ZM26.7779 154.049C27.561 153.27 28.8273 153.273 29.6063 154.057C29.7183 154.169 29.8307 154.282 29.9434 154.394C30.7265 155.173 30.7299 156.439 29.951 157.222C29.1721 158.005 27.9057 158.009 27.1226 157.23C27.0048 157.113 26.8874 156.995 26.7702 156.877C25.9913 156.094 25.9947 154.828 26.7779 154.049ZM37.2856 163.492C37.938 162.601 39.1894 162.407 40.0807 163.06C40.2089 163.153 40.3374 163.247 40.4661 163.34C41.3609 163.988 41.5614 165.238 40.9138 166.133C40.2663 167.028 39.0159 167.228 38.1211 166.581C37.9865 166.483 37.8523 166.386 37.7183 166.287C36.8269 165.635 36.6332 164.384 37.2856 163.492ZM146.714 163.492C147.367 164.384 147.173 165.635 146.282 166.287C146.148 166.386 146.013 166.483 145.879 166.581C144.984 167.228 143.734 167.028 143.086 166.133C142.439 165.238 142.639 163.988 143.534 163.34C143.663 163.247 143.791 163.153 143.919 163.06C144.811 162.407 146.062 162.601 146.714 163.492ZM49.1362 171.182C49.6411 170.2 50.8469 169.813 51.8293 170.318C51.9706 170.39 52.1121 170.462 52.2538 170.534C53.239 171.034 53.6326 172.238 53.133 173.223C52.6334 174.208 51.4298 174.601 50.4447 174.102C50.3618 174.06 50.279 174.018 50.1963 173.975C50.1311 173.942 50.0659 173.909 50.0007 173.875C49.0183 173.37 48.6313 172.165 49.1362 171.182ZM134.864 171.182C135.369 172.165 134.982 173.37 133.999 173.875C133.852 173.951 133.704 174.027 133.555 174.102C132.57 174.601 131.367 174.208 130.867 173.223C130.367 172.238 130.761 171.034 131.746 170.534C131.888 170.462 132.029 170.39 132.171 170.318C133.153 169.813 134.359 170.2 134.864 171.182ZM62.0462 176.919C62.3902 175.869 63.52 175.297 64.5696 175.641C64.7207 175.691 64.8721 175.74 65.0235 175.789C66.075 176.127 66.6532 177.254 66.315 178.305C65.9767 179.357 64.8501 179.935 63.7986 179.596C63.6401 179.546 63.4819 179.494 63.3238 179.442C62.2742 179.098 61.7022 177.969 62.0462 176.919ZM121.954 176.919C122.298 177.969 121.726 179.098 120.676 179.442C120.61 179.464 120.543 179.486 120.477 179.507C120.385 179.537 120.293 179.567 120.201 179.596C119.15 179.935 118.023 179.357 117.685 178.305C117.347 177.254 117.925 176.127 118.976 175.789C119.128 175.74 119.279 175.691 119.43 175.641C120.48 175.297 121.61 175.869 121.954 176.919ZM108.3 180.55C108.475 181.641 107.732 182.667 106.641 182.841C106.477 182.867 106.312 182.893 106.147 182.919C105.056 183.087 104.034 182.339 103.865 181.247C103.697 180.156 104.445 179.134 105.537 178.966C105.695 178.941 105.852 178.916 106.009 178.891C107.1 178.717 108.126 179.46 108.3 180.55ZM75.6998 180.55C75.8743 179.46 76.8999 178.717 77.9906 178.891C78.148 178.916 78.3055 178.941 78.4631 178.966C79.5547 179.134 80.3031 180.156 80.1346 181.247C79.9661 182.339 78.9445 183.087 77.8529 182.919C77.7731 182.906 77.6934 182.894 77.6137 182.881C77.5287 182.868 77.4438 182.855 77.3588 182.841C76.2681 182.667 75.5254 181.641 75.6998 180.55ZM89.7549 181.994C89.7579 180.89 90.6557 179.997 91.7602 180C91.8057 180 91.8513 180 91.8968 180C91.9312 180 91.9656 180 92 180C92.0799 180 92.1599 180 92.2398 180C93.3443 179.997 94.2421 180.89 94.2451 181.994C94.248 183.099 93.355 183.997 92.2504 184C92.167 184 92.0835 184 92 184C91.9165 184 91.833 184 91.7496 184C90.645 183.997 89.752 183.099 89.7549 181.994Z" fill="white"/>
</svg>
